X:1
T:Perpetuum Mobile
T:Perpetuum Mobile
T:Carl Maria von Weber
T:Op. 24, No. 1: 4th Movement
T:Public Domain.
T:Public Domain.
T:Public Domain.
T:Public Domain.
T:Public Domain.
T:Public Domain.
T:Public Domain.
T:Public Domain.
T:Public Domain.
T:Public Domain.
T:Public Domain.
T:Public Domain.
C:Carl Maria von Weber
Z:Public Domain.
%%score { ( 1 4 ) | ( 2 3 ) }
L:1/8
Q:1/4=176
M:2/4
K:C
V:1 treble nm="Grand Piano" snm="Pno."
V:4 treble 
V:2 bass 
V:3 bass 
V:1
!p!"^Rondo.\nPresto." (c'/b/ |"_leggiermente" a/g/^f/a/ g/e/^d/=f/ | e/c/B/d/ c/G/c/B/) | %3
!<(! (A/^G/A/^A/ B/c/^c/d/ | ^d/e/f/^f/!<)!!f! g/f/a/g/) |!p! (e/g/f/e/ d/f/e/d/ | %6
 c/e/d/c/ B/d/c/B/ |!<(! A/B/c/^c/ d/e/f/d/!<)! |!>(! c/B/a/g/ ^f/!>)!!p!g/) (c'/b/ | %9
"_leggiermente" a/g/^f/a/ g/e/^d/=f/ | e/c/B/d/ c/G/c/B/) |!<(! (A/^G/A/^A/ B/c/^c/d/ | %12
 ^d/e/f/^f/)!<)!!f! (g/f/a/g/ | e/g/f/e/ d/f/e/d/ | c/e/d/c/) (b/a/f/d/) | %15
 (a/g/e/c/) (g/B/)!ff! (!>!e/c/ | G/E/^D/E/ G/c/e/E/) | (!>!g/f/d/B/ _A/G/) (!>!e/c/ | %18
 G/E/^D/E/ G/c/e/E/) | (!>!g/f/d/B/ _A/G/) ([ec']/c/ | [db]/B/[ca]/A/ [Bg]/G/[df]/F/ | %21
 [ce]/E/[Fd]/D/ [Ec]/C/) (!>!e/^G/ | A/E/)(!>!e/^G/ A/E/)(!>!e/G/ | %23
 A/E/)(!>!e/^G/ A/E/) (!>!a/^c/ | d/A/)(!>!a/^c/ d/A/)(!>!a/c/ | d/A/)(!>!a/^c/ d/A/) (_a/_A/ | %26
 G/g/G/g/ G/g/) (_a/_A/ | G/g/G/g/ G/g/) ([d'g']/b/) | %28
!>(! ([c'f']/a/)([be']/g/) ([ad']/f/)([gc']/e/) | ([fb]/d/)([ea]/c/) ([dg]/B/)([cf]/A/)!>)! | %30
!p! ([Be]/G/[Bd]/G/ [B^c]/G/[Bd]/G/ | [B^c]/G/[Bd]/G/) (!>![=ca]/G/[cg]/G/) | %32
 ([Be]/G/[Bd]/G/ [B^c]/G/[Bd]/G/ | [B^c]/G/[Bd]/G/) (!>![=ca]/G/[cg]/G/) | %34
 (!>![Bg]/G/[Bf]/G/ !>![cf]/G/[ce]/G/ | !>![Ge]/D/[Gd]/D/ !>![^Fd]/D/[Fc]/D/ | %36
 !>![Gc]/D/[GB]/D/ !>![^FB]/C/[FA]/C/ | !>![DA]/B,/[DG]/B,/) ([CG]/A,/[C^F]/A,/ | %38
 [DA]/B,/[DG]/B,/ [CG]/A,/[C^F]/A,/ |"_dimin."!>(! [DA]/B,/[DG]/B,/) (F/E/F/_A/ | %40
 D/^C/D/F/[I:staff +1] B,/^A,/B,/D/ | _A,/G,/A,/B,/ F,/E,/F,/A,/ | %42
 D,/^C,/D,/F,/ B,,/^A,,/B,,/D,/)!>)! |!pp! (G,,/B,,/D,/^F,,/ G,,/B,,/D,/F,,/ | %44
 G,,/B,,/D,/^F,,/ G,,/B,,/D,/F,,/) | (G,,/^A,,/B,,/A,,/ C,/B,,/D,/^C,/ | %46
 E,/D,/G,/^F,/ A,/G,/B,/^A,/ |!<(![I:staff -1] C/B,/D/^C/ E/D/G/^F/ | A/G/B/^A/ c/B/d/^c/ | %49
 e/d/g/^f/ a/g/)!<)!!p! (c'/b/ | a/g/^f/a/ g/e/^d/=f/ | e/c/B/d/ c/G/c/B/) | %52
!<(! (A/^G/A/^A/ B/c/^c/d/ | ^d/e/f/^f/!<)!!f! g/f/a/g/) |!p! (e/g/f/e/ d/f/e/d/ | %55
 c/e/d/c/ B/d/c/B/ |!<(! A/B/c/^c/ d/e/f/d/!<)! |!mf! c/B/a/g/ ^f/g/)!f! (c'/b/ | %58
 a/g/^f/a/ g/e/^d/=f/ | e/c/B/d/ c/G/c/B/) |!<(! (A/^G/A/^A/ B/c/^c/d/ | %61
 ^d/e/f/^f/!<)!!f! g/f/a/g/) | (e/g/f/e/ d/f/e/d/ | c/e/d/c/) (b/a/f/d/) | (a/g/e/c/) (g/f/d/B/) | %65
!ff! (c/G/E/C/ B,/C/)(c/C/) | (e/c/G/E/ ^D/E/)(e/E/) | (g/e/c/G/ ^F/G/)(g/G/) | %68
 (c'/g/e/c/ B/c/)(c'/c/) |!<(! (c'/b/a/^g/ a/b/c'/d'/ | e'/d'/c'/b/ c'/d'/e'/f'/)!<)! | %71
!fff! (!>!g'/f'/d'/b/ g/f/d/B/ | G/^F/G/A/ G/=F/D/B,/) | (C/B,/D/C/ E/^D/F/E/ | %74
 G/^F/A/G/"_decresc."!>(! c/B/d/c/ | e/^d/f/e/ g/^f/a/g/ | c'/b/d'/c'/ e'/d'/c'/b/)!>)! | %77
!p! (a/c'/b/a/ g/b/a/g/ | f/a/g/f/ e/g/f/e/ | d/f/e/d/ c/e/d/c/ | B/d/c/B/ A/e/c/A/) | %81
 (^G/B/A/G/ A/e/c/A/) | (^F/A/G/F/ G/d/B/G/) | (A/^G/B/A/ c/B/d/c/ | %84
!<(! e/^d/^f/e/ a/^g/b/!<)!!mf!a/ |!>(! c'/b/d'/c'/ e'/^d'/^f'/!>)!!p!e'/ | d'/c'/b/a/ ^g/a/b/a/) | %87
 (g/^f/b/a/ g/f/e/d/ | c/B/A/G/) (^F/^E/F/G/ | ^G/A/^A/B/ c/^c/d/^d/ | %90
!<(! e/f/^f/g/ ^g/a/b/c'/)!<)! |!mf!"_dolce" (!>!^c'/d'/e'/d'/ =c'/b/a/g/ | %92
 !>!^f/g/a/g/ f/e/d/c/) | (B/A/c/B/ d/c/e/d/ | ^c/d/e/d/ =c/B/A/G/) |!f! (E/^D/^C/B,/ ^A,/B,/C/D/ | %96
 E/G/)(c/B/) (c/B/)(c/B/) | (e/^d/^c/B/ ^A/B/c/d/ | e/g/)(c'/b/) (c'/b/)(c'/b/) | %99
 !>!c'/e'/c'/a/ !>!g/b/g/e/ | !>!^d/^f/d/B/ !>!e/g/e/B/ | (^f/e/f/e/ f/e/f/e/) | %102
 (b/^f/^d/B/ ^A/B/b/B/) |"_dolce"!p! (!>!^c'/d'/e'/d'/ =c'/b/a/g/ | !>!^f/g/a/g/ f/e/d/c/) | %105
 (B/A/c/B/ d/c/e/d/ | !>!^c/d/e/d/ =c/B/A/G/) |!f! (!>!E/^D/^C/B,/) (!>!A/G/^F/E/) | %108
 (!>!e/^d/^c/B/) (!>!a/g/^f/e/) |!ff! (c'/a/e/c/) (b/g/e/B/) | (a/^f/B/A/) (g/e/B/G/) | %111
 (^f/e/c/A/) (c'/f/e/c/) | (!>!^a'/g'/e'/^c'/ ^a/g/e/^c/) | (b/^f/^d/B/ ^A/B/^c/A/) | %114
 (b/^f/^d/B/ ^A/B/^c/A/) | (b/^f/^d/B/)!ff! (!>!^d'/b/f/d/) | (!>!b/^f/^d/B/) (!>!f/d/B/^F/) | %117
 (!>!^d/B/^F/^D/)"_dim."!>(! (!>!B/F/D/B,/) | (!>!^F/^D/[I:staff +1]B,/^F,/) (!>!D/B,/F,/^D,/) | %119
[I:staff -1] x4 | x4 |[I:staff +1] (!>!B,/^F,/^D,/B,,/ ^A,,/B,,/C,/^C,/) | %122
 (D,/^D,/E,/=F,/ ^F,/G,/^G,/A,/)!>)! |!pp! (^A,/B,/C/^C/[I:staff -1] D/^D/E/=F/ | %124
"_cre                        scen              do"!<(! ^F/G/^G/A/ ^A/B/c/^c/ | %125
 d/^d/e/f/ ^f/g/^g/a/ | ^a/b/c'/^c'/!8va(! d'/^d'/e'/f'/ | ^f'/g'/^g'/a'/ ^a'/b'/c''/^c''/ | %128
 d''/^c''/d''/c''/ d''/c''/d''/=c''/!<)! | b'/c''/d''/e''/ f''/e''/d''/c''/ | %130
 b'/a'/g'/f'/ e'/d'/c'/b/!8va)! | a/g/f/e/!>(! d/^c/d/e/ | f/^f/g/^g/!>)!!mp! a/b/)!p! (c'/b/ | %133
 a/g/^f/a/ g/e/^d/=f/ | e/c/B/d/ c/G/c/B/) |!<(! (A/^G/A/^A/ B/c/^c/d/ | %136
 ^d/e/f/^f/!<)!!f! g/f/a/g/) |!p! (e/g/f/e/ d/f/e/d/ | c/e/d/c/ B/d/c/B/ | %139
!<(! A/B/c/^c/ d/e/f/d/!<)! |!>(! c/B/a/g/ ^f/!>)!!p!g/) (c'/b/ | %141
"_leggiermente" a/g/^f/a/ g/e/^d/=f/ | e/c/B/d/ c/G/c/B/) |!<(! (A/^G/A/^A/ B/c/^c/d/ | %144
 ^d/e/f/^f/)!<)!!f! (g/f/a/g/ | e/g/f/e/ d/f/e/d/ | c/e/d/c/) (b/a/f/d/) | %147
 (a/g/e/c/) (g/B/)!ff! (!>!e/c/ | G/E/^D/E/ G/c/e/E/) | (!>!g/f/d/B/ _A/G/) (!>!e/c/ | %150
 G/E/^D/E/ G/c/e/E/) | (!>!g/f/d/B/ _A/G/) ([ec']/c/ | [db]/B/[ca]/A/ [Bg]/G/[df]/F/ | %153
 [ce]/E/[Fd]/D/ [Ec]/C/) (!>!e/^G/ | A/E/)(!>!e/^G/ A/E/)(!>!e/G/ | %155
 A/E/)(!>!e/^G/ A/E/) (!>!a/^c/ | d/A/)(!>!a/^c/ d/A/)(!>!a/c/ | d/A/)(!>!a/^c/ d/A/) (!>!d'/^f/ | %158
 g/d/)(!>!d'/^f/ g/d/)(!>!d'/f/ | g/d/)(!>!d'/^f/ g/d/)!ff! ([_B=f]/G/ | %160
 [_Be]/G/[Bf]/G/ [Be]/G/[Bf]/G/ | [_Be]/G/[Bf]/G/ [Be]/G/)!pp! (c'/_b/ | _a/_b/a/g/ f/g/f/_e/ | %163
 _d/_e/d/c/ _B/c/B/_A/ | G/_A/G/F/ E/F/G/E/ | F/G/_A/F/ E/F/G/E/ | F/G/F/E/ F/C/D/E/ | %167
 F/G/_A/_B/ c/d/e/f/ | g/_a/_b/c'/!8va(! d'/e'/f'/g'/ | _a'/_b'/c''/a'/ g'/f'/e'/f'/)!8va)! | %170
 c'2!mp! _d'2 |!p! c'2!p! f'2 | e'2!>(! _d'2 | c'2 _b2!>)! |!pp! (_a/c'/_b/a/ g/b/a/g/ | %175
 f/_a/g/f/ _e/_g/f/e/) | (_d/f/_e/d/ c/e/d/c/ | _B/_d/c/B/ =A/c/B/A/ | _B/_d/c/B/ =A/c/B/A/ | %179
 _B/_d/c/B/ =A/c/B/A/) | (_B/c/B/A/ B/c/_d/=e/ | f/e/g/f/ _e/_d/c/_B/ | !>!_A/_B/c/B/ !>!E/F/G/F/ | %183
 !>!C/_D/_E/D/[I:staff +1] !>!A,/_B,/C/B,/) | (G,/_B,/_A,/G,/ A,/B,/[I:staff -1]C/_D/ | %185
 _E/F/G/_A/ _B/c/_d/_e/ |"_cresc." f/g/_a/_b/!8va(! c'/_d'/_e'/f'/ | %187
 g'/_a'/_b'/c''/!f! b'/a'/g'/f'/!8va)! | _e'/_d'/c'/_b/"_decresc." _a/g/f/=e/ | %189
 _e/d/_d/c/ _c/_B/A/_A/ | G/_G/F/E/!p! _E/D/_D/C/ |[K:bass] _C/_B,/A,/_A,/ G,/_G,/F,/=E,/) | %192
 (_E,/_A,/C/A,/ _E/A,/C/A,/ | _E,/_A,/C/A,/ _E/A,/C/A,/) | (_E,/G,/_D/G,/ _E/G,/D/_G,/ | %195
 _E,/G,/_D/G,/ _E/G,/D/_G,/) | (_E,/_A,/C/A,/ _E/A,/C/A,/ | _E,/_A,/C/A,/ _E/A,/C/A,/) | %198
 (F,/_A,/_B,/A,/ F/A,/B,/A,/ | G,/_B,/_D/B,/ _E/B,/D/B,/) | (_E,/_A,/C/A,/ _E/A,/C/A,/ | %201
 _E,/_A,/C/A,/ _E/A,/C/A,/) | (_E,/G,/_D/G,/ _E/G,/D/_G,/ | _E,/G,/_D/G,/ _E/G,/D/_G,/) | %204
 (_E,/_A,/C/A,/ _E/A,/C/A,/ | _E,/_A,/C/A,/ _E/A,/C/A,/) | (F,/_A,/_B,/A,/ F/A,/B,/A,/ | %207
 G,/_B,/_D/B,/ _E/B,/D/B,/) |[K:treble]!f! (_A/_E/C/=B,/ C/E/A/c/) | (!>!f/G/_e/G/ _d/G/_B/G/) | %210
 (_A/_E/C/=B,/ C/E/A/c/) | (!>!f/G/_e/G/ _d/G/_B/G/) | (_A/_E/C/=B,/ C/E/A/c/) | %213
 (!>!_g/=A/f/A/ _e/A/c/A/) | (_d/_B/F/=E/ F/B/d/f/) | (!>!a/=B/g/B/ f/B/d/B/) | %216
 (_e/g/f/e/ d/f/e/d/ | c/_e/d/c/ _B/_d/c/B/) | (_A/c/_B/A/ G/B/A/G/ | F/_A/G/F/ =E/G/F/E/) | %220
 (F/_A/G/F/ =E/G/F/E/ | F/_A/G/F/ =E/G/F/E/) | (F/E/G/F/ _A/G/_B/A/ | c/B/d/c/ f/e/g/f/ | %224
 _a/g/_b/a/ c'/b/a/g/ | f/_e/_d/c/ _B/_A/G/F/) |!pp! (_e/=B/d/B/ ^c/B/d/B/ | %227
 ^c/B/d/B/) (!>!_a/=c/g/c/) | (_e/=B/d/B/ ^c/B/d/B/ | ^c/B/d/B/) (!>!_a/=c/g/c/) | %230
 ([Bg]/G/[Bf]/G/) ([cf]/G/[c_e]/G/) | ([G_e]/_E/[G_d]/E/) ([_Ad]/E/[Ac]/E/) | %232
 ([Gc]/C/[G_B]/C/) ([FB]/C/[F_A]/C/) | ([_E_A]/C/[EG]/C/ [E^F]/C/[EG]/C/ | %234
 [_E^F]/C/[EG]/C/) (!>![=Fd]/C/[Fc]/C/) | ([_E_A]/C/[EG]/C/ [E^F]/C/[EG]/C/ | %236
 [_E^F]/C/[EG]/C/) (!>![=Fd]/C/[Fc]/C/) | ([Gc]/D/[GB]/D/) ([_E_B]/C/[EA]/C/) | %238
 ([D_A]/B,/[DG]/B,/) ([CG]/A,/[C^F]/A,/) | ([DA]/B,/[DG]/B,/) ([CG]/A,/[C^F]/A,/) | %240
 ([DA]/B,/[DG]/B,/) ([CG]/A,/[C^F]/A,/) | ([DA]/B,/[DG]/B,/) (d/c/B/_A/ | G/^F/=F/E/ _E/D/^C/=C/ | %243
[I:staff +1] B,/_B,/A,/_A,/ G,/^F,/=F,/E,/ | _E,/D,/_D,/C,/ B,,/_B,,/A,,/_A,,/ | %245
 G,,/^F,,/A,,/G,,/ B,,/A,,/C,/B,,/ | D,/C,/E,/D,/ F,/E,/G,/F,/ | %247
 A,/G,/B,/A,/ C/B,/[I:staff -1]D/C/ | E/D/F/E/ G/F/A/G/ | B/A/c/B/ d/c/e/d/ | %250
!<(! f/e/g/f/ a/g/b/a/ |!8va(! c'/b/d'/c'/ e'/d'/f'/e'/ | g'/f'/a'/g'/ b'/a'/!<)!!p! c''/b'/ | %253
 a'/g'/^f'/a'/ g'/e'/^d'/=f'/ | e'/c'/b/d'/ c'/g/c'/b/ |!<(! a/^g/a/^a/ b/c'/^c'/d'/ | %256
 ^d'/e'/f'/^f'/!<)!!f! g'/f'/a'/g'/) |!p! (e'/g'/f'/e'/ d'/f'/e'/d'/ | c'/e'/d'/c'/ b/d'/c'/b/) | %259
 (a/b/c'/^c'/ d'/e'/f'/d'/ | c'/b/a'/g'/ ^f'/g'/)!8va)!!ff! (c'/b/ | a/g/^f/a/ g/e/^d/=f/ | %262
 e/c/B/d/ c/G/) (a/^g/ | ^f/e/^d/f/ e/^c/^B/=d/ | ^c/A/^G/B/ A/E/) (d'/c'/ | _b/a/^g/b/ a/f/e/=g/ | %266
 f/d/^c/e/ d/A/) (g'/f'/ | e'/d'/^c'/e'/ d'/b/^a/=c'/ | b/g/^f/=a/ g/d/^c/d/) | %269
 (e/G/d/G/ ^c/G/d/G/ | ^c/G/d/G/ a/G/g/G/) | (e/G/d/G/ ^c/G/d/G/ | ^c/G/d/G/ a/G/g/G/) | %273
 ([d=g]/B/[df]/B/) ([cf]/A/[ce]/A/) | ([cf]/G/[ce]/G/) ([c=g]/A/[cf]/A/) | %275
 ([_eg]/c/[e^f]/c/) ([ea]/c/[eg]/c/) | ([_e=b]/c/[ea]/c/) ([gc']/d/[gb]/d/) | %277
 ([gd']/c/[gc']/c/) ([fb]/c/[fa]/c/) | ([ea]/c/[eg]/c/) ([dg]/B/) ([ec']/c/ | %279
 [db]/B/[ca]/A/ [Bg]/G/[df]/F/ | [ce]/E/[Fd]/D/ [Ec]/C/) (!>!e/^G/ | A/E/)(!>!e/^G/ A/E/)(!>!e/G/ | %282
 A/E/)(!>!e/^G/ A/E/) (!>!a/^c/ | d/A/)(!>!a/^c/ d/A/)(!>!a/c/ | %284
 d/A/)(!>!a/^c/ d/A/)!ff! ([Bd]/b/ | [ce]/c'/[Bd]/b/ [ce]/c'/[Bd]/b/ | %286
 [ce]/c'/[Bd]/b/ [ce]/c'/)([^ce]/^c'/ | [df]/d'/)([^d^f]/^d'/ [eg]/e'/)([eg]/e'/ | %288
 [fa]/f'/[g_b]/g'/{/c'} !>!a'/^f'/_e'/c'/ | a/^f/_e/c/ A/^F/_E/C/) | %290
 (!>!^F/_E/C/A,/) (!>!F/E/C/A,/) | (!>!^F/_E/C/A,/) (!>!F/E/C/A,/) | %292
 (!>!^F/_E/C/A,/) (!>!A/F/E/C/) | (!>!c/A/^F/_E/) (!>!_e/c/A/F/) | (!>!^f/_e/c/A/) (!>!a/f/e/c/) | %295
{/c} (!>!c'/a/^f/_e/ c/A/^F/_E/) | (!>!d'/b/^g/f/ d/B/^G/F/) | (!>!e'/^c'/_b/g/ e/^c/_B/G/) | %298
 (!>!f'/d'/=b/_a/ f/d/=B/_A/) | (!>!g'/e'/^c'/_b/ g/e/^c/_B/) | (!>!a'/^f'/_e'/c'/ a/^f/_e/c/ | %301
 A/^F/_E/C/[I:staff +1] A,/^F,/_E,/C,/) |!ff! (G,,/B,,/C,/B,,/ D,/C,/E,/^D,/ | %303
 F,/E,/G,/^F,/ A,/G,/C/B,/ |[I:staff -1] D/C/E/^D/ F/E/G/^F/ | A/G/c/B/ d/c/e/^d/ | %306
 f/e/g/^f/ a/g/c'/b/ |!8va(! d'/c'/e'/^d'/ f'/e'/g'/^f'/ | !>!a'/g'/e'/^d'/ !>!f'/e'/c'/b/ | %309
 !>!d'/c'/g/^f/)!8va)! (!>!a/g/e/^d/) | (!>!f/e/c/B/) (!>!d/c/G/^F/) | %311
 (!>!A/G/E/^D/) (!>!F/E/B,/C/) |[I:staff +1] (G,/^F,/G,/^G,/ A,/^A,/B,/C/ | %313
[I:staff -1] ^C/D/_E/=E/ F/^F/G/^G/ |"_cresc." A/^A/B/c/ ^c/d/^d/e/ | f/^f/g/^g/ a/b/)!ff! (c'/b/ | %316
 a/g/^f/a/ g/e/^d/=f/ | e/c/B/d/ c/G/c/B/ | A/B/c/^c/ d/e/f/^f/ |!<(! g/a/b/c'/ d'/e'/f'/b/)!<)! | %320
!fff! (!>!d'/c'/g/e/) (!>!b/a/f/d/) | (!>!a/g/e/c/) (g/B/)!ff!!8va(! (c''/b'/ | %322
 a'/g'/^f'/a'/ g'/e'/^d'/=f'/ | e'/c'/b/d'/!8va)! c'/g/^f/a/ | g/e/^d/f/ e/c/B/=d/ | %325
 c/G/^F/A/ G/E/^D/=F/ | E/C/B,/D/ C/[I:staff +1]G,/^F,/A,/ | G,/E,/^D,/F,/ E,/C,/)G,,/B,,/ | %328
 (C,/E,/G,,/B,,/ C,/E,/G,,/B,,/ | C,/E,/G,,/B,,/ C,/E,/G,,/B,,/ | C,)[I:staff -1] z!fff! [cegc']2 | %331
 z4 |] %332
V:2
 z |[K:treble]!p! .[CE].[C^D].[CE].[C^F] | .[CG].[C^D].[CE].[CE] | .[CDF].[CDF].[CDF].[CDFA] | %4
 .[CDFA].[CDFA] ([B,DFG-]2 | .[CEG]) z[K:bass] .[^G,B,] z | .[A,C] z .[E,G,] z | %7
 .[F,A,] z .[D,D].[D,D] | .[G,B,] z z z |[K:treble]!p! .[CE].[C^D].[CE].[C^F] | %10
 .[CG].[C^D].[CE].[CE] | .[CDF].[CDF].[CDF].[CDFA] | .[CDFA].[CDFA] [B,DFG-]2 | %13
 .[CEG] z[K:bass] .[^G,B,] z | .[A,C] z .[F,A,D] z | .[G,CE] z .[G,DF] z | %16
 .[C,,C,]!ff! .[C,E,].[C,E,] z | .[G,,G,]!ff! .[G,B,].[G,B,] z | .[C,,C,]!ff! .[C,E,].[C,E,] z | %19
 .[G,,G,]!ff! .[G,B,].[G,B,] .[C,,C,] |!ff! .[E,,E,].[F,,F,].[^F,,^F,].[G,,G,] | %21
 .[A,,A,].[B,,B,].[C,C] (!>![E,D] | .[A,C])(!>![E,D].[A,C])(!>![E,D] | %23
 .[A,C])(!>![E,D].[A,C])[K:treble] (!>![A,G] | .[DF])(!>![A,G].[DF])(!>![A,G] | %25
 .[DF])(!>![A,G].[DF]) .[CDF] |!ff! .[B,DF].[B,DF] .[B,DF] .[CDF] |!ff! .[B,DF].[B,DF] .[B,DF] z | %28
 z4 | z4 | .F.F .F.F | .F.F !>!E2 | .F.F .F.F | .F.F !>!E2 | .D.D.C.C |[K:bass] .B,.B,.A,.A, | %36
 .G,.G,.D,.D, | G,,2 (!>!_E,D, | G,,2) (!>!_E,D, | G,,2) z2 | z4 | z4 | z4 | z4 | z4 | z4 | z4 | %47
 z4 | z4 | z3 z |[K:treble]!p! .[CE].[C^D].[CE].[C^F] | .[CG].[C^D].[CE].[CE] | %52
 .[CDF].[CDF].[CDF].[CDFA] | .[CDFA].[CDFA] (!>![B,DFG-]2 | .[CEG]) z[K:bass] .[^G,B,] z | %55
 .[A,C] z .[E,G,] z | .[F,A,] z .[D,D].[D,D] | [G,B,]2 z z | .[C,E,].[C,^D,].[C,E,].[C,^F,] | %59
 .[C,G,].[C,^D,].[C,E,].[C,E,] | .[C,D,F,A,].[C,D,F,A,].[C,D,F,A,].[C,D,F,A,] | %61
 .[C,D,F,A,].[C,D,F,A,] (!>![B,,D,F,G,-]2 | .[C,E,G,]) z[K:bass] .[^G,B,] z | .[A,C] z .[F,A,D] z | %64
 .[G,CE] z .[G,DF] z | [C,,C,]2 .[C,E,].[C,E,] | [C,,C,]2 .[C,E,].[C,E,] | %67
 [C,,C,]2 .[C,E,].[C,E,] | [C,,C,]2 .[C,E,].[C,E,] | .[A,,C,E,].[A,,C,E,] .[A,,C,E,].[A,,C,E,] | %70
 .[A,,C,E,].[A,,C,E,] .[A,,C,E,].[A,,C,E,] | [G,,D,F,]4- | [G,,D,F,]4 | [C,E,]2 z2 | z4 | z4 | z4 | %77
[K:treble] ([ce]2 [Bd]2 | [Ac]2 [GB]2 | [FA]2 [EG]2 | [DF]2 [CE]2) | .[DF].[DF] [CE]2 | %82
 .[C_E].[CE] [B,D]2 | [CE]4- | [CE]4- | [CE]2 z2 | z4 |[K:bass] [D,A,C]4- | [D,A,C]4- | %89
 [D,A,C]2 z2 | z4 | .G,, .[D,B,].[D,B,].[D,B,] | .G,, .[E,C].[E,C].[E,C] | %93
 .G,, .[^F,C].[F,C].[F,C] | .G,, .[G,B,].[G,B,].[G,B,] | %95
 .[B,,^F,A,].[B,,F,A,].[B,,F,A,].[B,,F,A,] | .[E,G,] z z2 | %97
[K:treble] .[B,^FA].[B,FA].[B,FA].[B,FA] | .[EG] z z2 | .[A,CE] z .[B,EG] z | %100
 .[B,^FA] z .[B,EG] z | .[CE^A].[CEA].[CEA].[CEA] | [B,^DB]2 z2 | %103
[K:bass] .G,, .[D,G,B,].[D,G,B,].[D,G,B,] | .G,, .[E,G,C].[E,G,C].[E,G,C] | %105
 .G,, .[^F,A,CD].[F,A,CD].[F,A,CD] | .G,, .[G,B,D].[G,B,D].[G,B,D] | (([B,,^F,A,]2 [E,G,]2)) | %108
 (([B,^FA]2 [EG]2)) | .[A,,,A,,].[C,,C,] !>![E,,E,]2 | .[^D,,^D,].[B,,,B,,] !>![E,,E,]2 | %111
 .[A,,,A,,].[^G,,,^G,,] !>![A,,,A,,]2 | (([^A,,^C,E,G,]4 | [B,,^D,^F,]2))[K:treble] .[EG].[EG] | %114
 [B,^D^F]2 .[EG].[EG] | [B,^D^F]2 z2 | z4 | z4 |[K:bass] z4 | [B,,,^D,,^F,,]2 .[E,,G,,].[E,,G,,] | %120
 [B,,,^D,,^F,,]2 .[E,,G,,].[E,,G,,] | [B,,,^D,,^F,,]4- | [B,,,D,,F,,]2 [B,,^D,]>[B,,D,] | %123
 [B,,^D,^F,]2 [B,,D,F,]2 | [B,,^D,^F,B,]2 [B,,D,F,B,]2 | [B,,=D,^F,B,]4- | %126
 [B,,D,F,B,]2 [B,,D,^F,B,]>[B,,D,F,B,] | [B,,D,^F,B,]2 [B,,D,F,B,]2 | [B,,D,^F,B,]2 [B,,D,F,B,]2 | %129
 [G,,D,=F,B,]4- | [G,,D,F,B,]4- | [G,,D,F,B,]2 z2 | z3 z |[K:treble]!p! .[CE].[C^D].[CE].[C^F] | %134
 .[CG].[C^D].[CE].[CE] | .[CDF].[CDF].[CDF].[CDFA] | .[CDFA].[CDFA] ([B,DFG-]2 | %137
 .[CEG]) z[K:bass] .[^G,B,] z | .[A,C] z .[E,G,] z | .[F,A,] z .[D,D].[D,D] | .[G,B,] z z z | %141
[K:treble]!p! .[CE].[C^D].[CE].[C^F] | .[CG].[C^D].[CE].[CE] | .[CDF].[CDF].[CDF].[CDFA] | %144
 .[CDFA].[CDFA] [B,DFG-]2 | .[CEG] z[K:bass] .[^G,B,] z | .[A,C] z .[F,A,D] z | %147
 .[G,CE] z .[G,DF] z | .[C,,C,]!ff! .[C,E,].[C,E,] z | .[G,,G,]!ff! .[G,B,].[G,B,] z | %150
 .[C,,C,]!ff! .[C,E,].[C,E,] z | .[G,,G,]!ff! .[G,B,].[G,B,] .[C,,C,] | %152
!ff! .[E,,E,].[F,,F,].[^F,,^F,].[G,,G,] | .[A,,A,].[B,,B,].[C,C] (!>![E,D] | %154
 .[A,C])(!>![E,D].[A,C])(!>![E,D] | .[A,C])(!>![E,D].[A,C])[K:treble] (!>![A,G] | %156
 .[DF])(!>![A,G].[DF])(!>![A,G] | .[DF])(!>![A,G].[DF]) (!>![Dc] | .[G_B])(!>![Dc].[GB])(!>![Dc] | %159
 .[G_B])(!>![Dc].[GB])[K:bass] .[_D,_D] | .[C,C].[_D,_D].[C,C].[D,D] | .[C,C].[_D,_D].[C,C] z | %162
 z .[_A,C].[A,C].[A,C] | .[_A,C].[A,C].[A,C].[A,C] | .[F,_A,C].[F,A,C] [F,_B,_D]2 | %165
 .[F,_A,C].[F,A,C] [F,_B,_D]2 | z .[_A,C].[A,C].[A,C] | .[_A,C].[A,C].[A,C].[A,C] | %168
 .[_A,C].[A,C].[A,C].[A,C] | .[_A,C].[A,C].[A,C].[A,C] | C2 (_D2 | C2) (F2 | E2) (_D2 | C2 _B,2) | %174
 ([F,_A,]2 [G,_B,]2 | [_A,C]2 [=A,C]2) | [_B,_D]2 [C_E]2 | x2 x2 | x4 | x4 | %180
[I:staff -1] [_DF]2[I:staff +1] z2 | z4 | z4 | z4 | [_E,,_E,]4- | [E,,E,]2 z2 | %186
 z .[G,_B,_D].[G,B,D].[G,B,D] | .[G,_B,_D].[G,B,D].[G,B,D].[G,B,D] | [_E,G,_B,_D]2 z2 | z4 | z4 | %191
 z4 |!mf! _A,,2 z2 | z _A,,G,,A,, | ._B,, z !>!_E,,2 | z _B,,_A,,B,, | .C, z !>!_A,,2 | %197
 z C,_B,,C, | ._D, z ._B,, z | ._E, z ._E,, z | ._A,,._B,, !>!C,2 | z[K:treble] ._A.G.A | %202
 ._B z[K:bass] !>!_E,,2 | z[K:treble] ._B._A.B | .c z[K:bass] !>!_A,,2 | z[K:treble] .c._B.c | %206
 ._d z[K:bass] ._B,, z | ._E, z ._E,, z | ._A,,2 z2 | .[_E,,_E,]!f! .[E,G,_D].[E,G,D].[E,G,D] | %210
 .[_A,C] z z2 | .[_E,,_E,]!f! .[E,G,_D].[E,G,D].[E,G,D] | .[_A,C] z z2 | %213
 .[F,,F,]!f! .[F,A,C_E].[F,A,CE].[F,A,CE] | .[_B,_D] z z2 | %215
 .[G,,G,]!f! .[G,=B,=DF].[G,B,DF].[G,B,DF] | ([C,_E,]2 [D,F,]2 | [_E,G,]2 [=E,G,]2) | %218
 ([F,_A,]2 [G,_B,]2 | [_A,C]2 [_B,_D]2) | [_A,C]2 .[_B,_D].[B,D] | [_A,C]2 .[_B,_D].[B,D] | %222
 [_A,C]4- | [A,C]2 z2 | z4 | z4 |[K:treble] .[_A,=DF].[A,DF].[A,DF].[A,DF] | %227
 .[_A,DF].[A,DF] !>![G,_E]2 | .[_A,DF].[A,DF].[A,DF].[A,DF] | .[_A,DF].[A,DF] !>![G,_E]2 | %230
[K:bass] .D.D .C.C | ._B,.B, ._A,.A, | ._E,.E, .F,.F, | .[G,,G,].[G,,G,].[G,,G,].[G,,G,] | %234
 .[G,,G,].[G,,G,] !>![_A,,_A,]2 | .[G,,G,].[G,,G,].[G,,G,].[G,,G,] | %236
 .[G,,G,].[G,,G,] !>![_A,,_A,]2 | [G,,G,]2 z2 | z2 (!>!_E,D, | G,,2) (!>!_E,D, | G,,2) (!>!_E,D, | %241
 G,,3) z | z4 | z4 | z4 | z4 | z4 | z4 | z4 | z4 | z4 | z4 | z3 z | %253
[K:treble]!p! .[CE].[C^D].[CE].[C^F] | .[CG].[C^D].[CE].[CE] | .[CDF].[CDF].[CDF].[CDFA] | %256
 .[CDFA].[CDFA] ([B,DFG-]2 | .[CEG]) z[K:bass] .[^G,B,] z | .[A,C] z .[E,=G,] z | %259
 .[F,A,] z .[D,D].[D,D] | [G,B,]2 z2 | .[C,,C,].[^D,,^D,].[E,,E,].[^F,,^F,] | %262
 .[G,,G,].[^D,,^D,].[E,,E,] z | .[A,,,A,,].[C,,C,].[^C,,^C,].[^D,,^D,] | %264
 .[E,,E,].[C,,C,].[^C,,^C,] z | .[D,,D,].[E,,E,].[F,,F,].[^G,,^G,] | .[A,,A,].[E,,E,].[F,,F,] z | %267
 .[G,,G,].[^A,,^A,].[B,,B,].[^C,^C] | .[D,D].[^A,,^A,].[B,,B,].[G,,G,] | %269
 .[G,,,G,,] .[G,B,F].[G,^A,F].[G,B,F] | .[G,^A,F].[G,B,F] [G,CE]2 | %271
 .[G,,,G,,] z .[G,^A,F].[G,B,F] | .[G,^A,F].[G,B,F] [G,CE]2 | !>!^G,/F/D/F/ !>!A,/E/C/E/ | %274
 _B,,/C/_B,/C/ A,,/C/A,/C/ | _A,,/C/_A,/C/ G,,/C/G,/C/ | ^F,,/A,/^F,/A,/ =F,,/G,/=F,/G,/ | %277
 E,,/G,/E,/G,/ F,,/A,/F,/A,/ | (G,,/G,/E,/G,/ G,,/G,/) .[C,,C,] | %279
 .[E,,E,].[F,,F,].[G,,G,].[^G,,^G,] | .[A,,A,].[B,,B,].[C,C] (!>![E,D] | %281
 .[A,C])(!>![E,D].[A,C])(!>![E,D] | .[A,C])(!>![E,D].[A,C])[K:treble] (!>![A,G] | %283
 .[DF])(!>![A,G].[DF])(!>![A,G] | .[DF])(!>![A,G].[DF])[K:bass] .[G,,,G,,] | %285
 .[C,,C,].[G,,,G,,].[C,,C,].[G,,,G,,] | .[C,,C,].[G,,,G,,].[C,,C,] (!>![A,,,A,,] | %287
 .[D,,D,]) (!>![B,,,B,,].[E,,E,]) (!>![C,,C,] | [F,,F,]2) !>![A,,C,_E,^F,A,]2- | [A,,C,E,F,A,]4 | %290
 (!>!^F,/_E,/C,/A,,/) (!>!F,/E,/C,/A,,/) | (!>!^F,/_E,/C,/A,,/) (!>!F,/E,/C,/A,,/) | %292
!ped! !>![A,,C,_E,^F,]4!ped-up! |!ped! z4!ped-up! |!ped! x4!ped-up! | %295
!ped! !arpeggio![A,,C,_E,^F,]4!ped-up! |!ped! !arpeggio![B,,D,F,^G,]4!ped-up! | %297
!ped! !arpeggio![^C,E,=G,_B,]4!ped-up! |!ped! !arpeggio![D,F,_A,=B,]4!ped-up! | %299
!ped! !arpeggio![E,G,_B,^C]4!ped-up! |!ped! !arpeggio![^F,A,C_E]4 | z4!ped-up! | G,,, z G,, z | %303
 [G,,C,] z [C,E,] z | [E,G,] z [G,C] z |[K:treble] [CE] z [EG] z | [Gc] z [ce] z | [eg] z [ce] z | %308
 [Gce] z z2 | z4 | z4 | z4 |[K:bass] (G,,/^F,,/G,,/^G,,/ A,,/^A,,/B,,/C,/ | %313
 ^C,/D,/_E,/=E,/ F,/^F,/G,/^G,/ | A,/^A,/B,/C/[I:staff -1] ^C/D/^D/E/ | %315
 F/^F/G/^G/ A/B/)[I:staff +1] z | .[C,,C,].[^D,,^D,].[E,,E,].[^F,,^F,] | %317
 .[G,,G,].[^D,,^D,].[E,,E,].[C,,C,] | .[F,,F,].[E,,E,].[D,,D,].[C,,C,] | %319
 .[B,,,B,,].[A,,,A,,].[G,,,G,,].[F,,,F,,] | !>![E,,,E,,]2 !>![F,,,F,,]2 | %321
 !>![G,,,G,,]2 !>![G,,,G,,]2 | .[C,,C,].[^D,,^D,].[E,,E,].[^F,,^F,] | %323
 .[G,,G,].[^D,,^D,].[E,,E,] .[^F,^F] | .[G,G].[^D,^D].[E,E].[B,,B,] | %325
 .[C,C].[^F,,^F,].[G,,G,].[^D,,^D,] | .[E,,E,].[B,,,B,,].[C,,C,].[^F,,,^F,,] | %327
 .[G,,,G,,].[^D,,,^D,,] .[E,,,E,,]G,,,/B,,,/ | (C,,/E,,/G,,,/B,,,/ C,,/E,,/G,,,/B,,,/ | %329
 C,,/E,,/G,,,/B,,,/ C,,/E,,/G,,,/B,,,/ | C,,) z [C,,E,,G,,C,]2 | z4 |] %332
V:3
 x |[K:treble] x4 | x4 | x4 | x4 | x2[K:bass] x2 | x4 | x4 | x4 |[K:treble] x4 | x4 | x4 | x4 | %13
 x2[K:bass] x2 | x4 | x4 | x4 | x4 | x4 | x4 | x4 | x4 | x4 | x3[K:treble] x | x4 | x4 | x4 | x4 | %28
 x4 | x4 | x4 | x4 | x4 | x4 | x4 |[K:bass] x4 | x4 | x4 | x4 | x4 | x4 | x4 | x4 | x4 | x4 | x4 | %46
 x4 | x4 | x4 | x4 |[K:treble] x4 | x4 | x4 | x4 | x2[K:bass] x2 | x4 | x4 | x4 | x4 | x4 | x4 | %61
 x4 | x2[K:bass] x2 | x4 | x4 | x4 | x4 | x4 | x4 | x4 | x4 | x4 | x4 | x4 | x4 | x4 | x4 | %77
[K:treble] x4 | x4 | x4 | x4 | x4 | x4 | x4 | x4 | x4 | x4 |[K:bass] x4 | x4 | x4 | x4 | x4 | x4 | %93
 x4 | x4 | x4 | x4 |[K:treble] x4 | x4 | x4 | x4 | x4 | x4 |[K:bass] x4 | x4 | x4 | x4 | x4 | x4 | %109
 x4 | x4 | x4 | x4 | x2[K:treble] x2 | x4 | x4 | x4 | x4 |[K:bass] x4 | %119
 (!>!B,/^F,/^D,/B,,/ ^A,,/B,,/^C,/A,,/) | (!>!B,/^F,/^D,/B,,/ ^A,,/B,,/^C,/A,,/) | x4 | x4 | x4 | %124
 x4 | x4 | x4 | x4 | x4 | x4 | x4 | x4 | x4 |[K:treble] x4 | x4 | x4 | x4 | x2[K:bass] x2 | x4 | %139
 x4 | x4 |[K:treble] x4 | x4 | x4 | x4 | x2[K:bass] x2 | x4 | x4 | x4 | x4 | x4 | x4 | x4 | x4 | %154
 x4 | x3[K:treble] x | x4 | x4 | x4 | x3[K:bass] x | x4 | x4 | F,4- | F,4 | x4 | x4 | F,4- | F,4- | %168
 F,4- | F,4 | [G,_B,]4- | [G,B,]4 | [G,_B,]4- | [G,B,]2 [E,G,]2 | x4 | x4 | x4 | x4 | x4 | x4 | %180
 x4 | x4 | x4 | x4 | x4 | x4 | _E,4- | E,4 | x4 | x4 | x4 | x4 | x4 | x4 | x4 | x4 | x4 | x4 | x4 | %199
 x4 | x4 | x[K:treble] x3 | x2[K:bass] x2 | x[K:treble] x3 | x2[K:bass] x2 | x[K:treble] x3 | %206
 x2[K:bass] x2 | x4 | x4 | x4 | x4 | x4 | x4 | x4 | x4 | x4 | x4 | x4 | x4 | x4 | x4 | x4 | x4 | %223
 x4 | x4 | x4 |[K:treble] x4 | x4 | x4 | x4 |[K:bass] x4 | x4 | x4 | x4 | x4 | x4 | x4 | x4 | x4 | %239
 x4 | x4 | x4 | x4 | x4 | x4 | x4 | x4 | x4 | x4 | x4 | x4 | x4 | x4 |[K:treble] x4 | x4 | x4 | %256
 x4 | x2[K:bass] x2 | x4 | x4 | x4 | x4 | x4 | x4 | x4 | x4 | x4 | x4 | x4 | x4 | x4 | x4 | x4 | %273
 x4 | !>!_B,,2 !>!A,,2 | !>!_A,,2 !>!G,,2 | !>!^F,,2 !>!=F,,2 | !>!E,,2 !>!F,,2 | !>!G,,2 x2 | x4 | %280
 x4 | x4 | x3[K:treble] x | x4 | x3[K:bass] x | x4 | x4 | x4 | x4 | x4 | x4 | x4 | x4 | x4 | x4 | %295
 x4 | x4 | x4 | x4 | x4 | x4 | x4 | x4 | x4 | x4 |[K:treble] x4 | x4 | x4 | x4 | x4 | x4 | x4 | %312
[K:bass] x4 | x4 | x4 | x4 | x4 | x4 | x4 | x4 | x4 | x4 | x4 | x4 | x4 | x4 | x4 | x4 | x4 | x4 | %330
 x4 | x4 |] %332
V:4
 x | x4 | x4 | x4 | x4 | x4 | x4 | x4 | x4 | x4 | x4 | x4 | x4 | x4 | x4 | x4 | x4 | x4 | x4 | x4 | %20
 x4 | x4 | x4 | x4 | x4 | x4 | x4 | x4 | x4 | x4 | x4 | x4 | x4 | x4 | x4 | x4 | x4 | x4 | x4 | %39
 x4 | x4 | x4 | x4 | x4 | x4 | x4 | x4 | x4 | x4 | x4 | x4 | x4 | x4 | x4 | x4 | x4 | x4 | x4 | %58
 x4 | x4 | x4 | x4 | x4 | x4 | x4 | x4 | x4 | x4 | x4 | x4 | x4 | x4 | x4 | x4 | x4 | x4 | x4 | %77
 x4 | x4 | x4 | x4 | x4 | x4 | x4 | x4 | x4 | x4 | x4 | x4 | x4 | x4 | x4 | x4 | x4 | x4 | x4 | %96
 x4 | x4 | x4 | x4 | x4 | x4 | x4 | x4 | x4 | x4 | x4 | x4 | x4 | x4 | x4 | x4 | x4 | x4 | x4 | %115
 x4 | x4 | x4 | x4 | x4 | x4 | x4 | x4 | x4 | x4 | x4 | x2!8va(! x2 | x4 | x4 | x4 | x4!8va)! | %131
 x4 | x4 | x4 | x4 | x4 | x4 | x4 | x4 | x4 | x4 | x4 | x4 | x4 | x4 | x4 | x4 | x4 | x4 | x4 | %150
 x4 | x4 | x4 | x4 | x4 | x4 | x4 | x4 | x4 | x4 | x4 | x4 | x4 | x4 | x4 | x4 | x4 | x4 | %168
 x2!8va(! x2 | x4!8va)! | (c'/_b/g/e/) (_d'/b/g/e/) | (c'/_b/g/e/) (f'/_d'/b/g/) | %172
 (e'/_d'/_b/g/) (d'/b/g/e/ | c'/_b/g/e/ b/g/e/c/) | x4 | x4 | x4 | [_DF]2 [_E_G]2 | %178
 [_DF]2 .[_E_G].[EG] | [_DF]2 .[_E_G].[EG] | x4 | x4 | x4 | x4 | x4 | x4 | x2!8va(! x2 | x4!8va)! | %188
 x4 | x4 | x4 |[K:bass] x4 | x4 | x4 | x4 | x4 | x4 | x4 | x4 | x4 | x4 | x4 | x4 | x4 | x4 | x4 | %206
 x4 | x4 |[K:treble] x4 | x4 | x4 | x4 | x4 | x4 | x4 | x4 | x4 | x4 | x4 | x4 | x4 | x4 | x4 | %223
 x4 | x4 | x4 | x4 | x4 | x4 | x4 | x4 | x4 | x4 | x4 | x4 | x4 | x4 | x4 | x4 | x4 | x4 | x4 | %242
 x4 | x4 | x4 | x4 | x4 | x4 | x4 | x4 | x4 |!8va(! x4 | x4 | x4 | x4 | x4 | x4 | x4 | x4 | x4 | %260
 x3!8va)! x | x4 | x4 | x4 | x4 | x4 | x4 | x4 | x4 | x4 | x4 | x4 | x4 | x4 | x4 | x4 | x4 | x4 | %278
 x4 | x4 | x4 | x4 | x4 | x4 | x4 | x4 | x4 | x4 | x4 | x4 | x4 | x4 | x4 | x4 | x4 | x4 | x4 | %297
 x4 | x4 | x4 | x4 | x4 | x4 | x4 | x4 | x4 | x4 |!8va(! x4 | x4 | x2!8va)! x2 | x4 | x4 | x4 | %313
 x4 | x4 | x4 | x4 | x4 | x4 | x4 | x4 | x3!8va(! x | x4 | x2!8va)! x2 | x4 | x4 | x4 | x4 | x4 | %329
 x4 | x4 | x4 |] %332

